images/facebook-icon-white.svg

<svg viewBox="0 0 16.6 32.11" xmlns="http://www.w3.org/2000/svg"><path d="m3.69 17.74v14.37h7v-14.3h4.77l1.15-6h-5.88v-4.33a1.29 1.29 0 0 1 1.27-1.41h3.4v-6.07h-6.32c-2.18 0-5.41 2.69-5.41 5.56v6.12h-3.67v6z" fill="#fff" fill-rule="evenodd"/></svg>

<svg xmlns="http://www.w3.org/2000/svg" viewBox="0 0 16.6 32.11"><defs><style>.cls-1{fill:#fff;fill-rule:evenodd;}</style></defs><title>facebook-icon-white</title><g id="Layer_2" data-name="Layer 2"><g id="Layer_2-2" data-name="Layer 2"><path class="cls-1" d="M3.69,17.74V32.11h7V17.81h4.77l1.15-6H10.73V7.48A1.29,1.29,0,0,1,12,6.07h3.4V0H9.08C6.9,0,3.67,2.69,3.67,5.56v6.12H0v6Z"/></g></g></svg>
